X:451
T:Mrs General Maxwell
B:Kerr's Merry Melodies Bk.2 (c1875)
Z:Nigel Gatherer
M:4/4
L:1/8
K:C
G | c2 ec dGBG | c2 ec dAAB | c2 ec dGBG |   cAGc ECC  :|
e | gagf  ecce | gage  fdde | gagf  ecaf | 1 ecGB c3   :|
                                           2 ecdB cGAB |]
<end>
<start>
